X: 13
T: 13. Allein zu dir, Herr Jesu Christ
N: Derived from chor013.krn
C: Johann Sebastian Bach
%%abc-version 2.0
%%abcx-abcm2ps-target-version 5.9.1 (29 Sep 2008)
%%abc-creator hum2abc beta
%%abcx-conversion-date 2019/03/11 17:28:17
%%abc-edited-by Craig Stuart Sapp
%%humdrum-veritas 1639743140
%%humdrum-veritas-data 3116804937
%%
%%barnumbers 0
L: 1/4
M: C
%%staves [1 2 3 4]
V: 1 clef=treble
V: 2 clef=treble
V: 3 clef=treble-8
V: 4 clef=bass
K: C
[V:1] c [I:setbarnb 1]| 
[V:2] E | 
[V:3] A/B/ | 
[V:4] A, | 
[V:1] GA/B/ c/d/e | 
[V:2] E/D/ C/D/ E/F/G | 
[V:3] c/B/AGG/A/ | 
[V:4] E,F,E,/D,/C, | 
[V:1] dc2B | 
[V:2] G3/^F/GG | 
[V:3] B/A//B// c/d/ed | 
[V:4] G,A,G,G, | 
[V:1] !fermata!c2ze | 
[V:2] !fermata!G2xG | 
[V:3] !fermata!e2xc | 
[V:4] !fermata!C,2zC, | 
[V:1] dcB/A/G | 
[V:2] G/F/EE2- | 
[V:3] B3/A/ G/A/B | 
[V:4] G,A,E,3/D,/ | 
[V:1] AB/c/dc/B/ | 
[V:2] E/^F/ ^G/A/BA | 
[V:3] cd/e/ =f/e/e | 
[V:4] C,/C/ B,/A,/^G,A, | 
[V:1] cB!fermata!A :|]  
[V:2] A^G!fermata!E :|]  
[V:3] f/d/ B/c//d//!fermata!c :|]  
[V:4] D,E,!fermata!A,, :|]  
[V:1] e [I:setbarnb 7]| 
[V:2] A | 
[V:3] c | 
[V:4] A, | 
[V:1] f/e/de/d/c | 
[V:2] AA^GE | 
[V:3] cB/A/Bc/B/ | 
[V:4] D,/E,/F,E,A,/=G,/ | 
[V:1] de!fermata!Ae | 
[V:2] AG!fermata!FE | 
[V:3] AA!fermata!dB | 
[V:4] F,/E,/ D,/^C,/!fermata!D,^G, | 
[V:1] f/e/de/d/c | 
[V:2] AA/G/GG | 
[V:3] cdcc | 
[V:4] A,B,CE, | 
[V:1] de!fermata!Ac | 
[V:2] AB!fermata!E=G | 
[V:3] cB!fermata!ce | 
[V:4] ^F,^G,!fermata!A,E,/F,/ | 
[V:1] BAGA | 
[V:2] G/^F/EE/G/ =F/E/ | 
[V:3] deB^c | 
[V:4] G,^C,/^D,/E,A,, | 
[V:1] F/E/F!fermata!EA | 
[V:2] D/^C/D!fermata!C=C | 
[V:3] AA!fermata!AA | 
[V:4] =D,/F,/ E,/D,/!fermata!A,F,- | 
[V:1] Gc2B | 
[V:2] DG/F/ED | 
[V:3] B/A/G2G | 
[V:4] F,E,/D,/ E,/F,/G, | 
[V:1] !fermata!cGAB | 
[V:2] !fermata!EE^F^G | 
[V:3] !fermata!Gedd | 
[V:4] !fermata!C,CC/D/ C/B,/ | 
[V:1] c/d/edc | 
[V:2] AEA2- | 
[V:3] e/d/c/B/ A/B/ c/d//e// | 
[V:4] A,/B,/A,/=G,/F,3/E,/ | 
[V:1] BB!fermata!A |]  
[V:2] A^G!fermata!E |]  
[V:3] fe/d/!fermata!^c |]  
[V:4] D,E,!fermata!A,, |]  



